X: 18939
T: Indigo
R: waltz
M: 3/4
K: Adorian
|:e2 c2 A2|Bc de dc|e2 c2 A2|Bc d2- d2|
e2 c2 A2|Bc de dc|e2- ec e2|1 f2 d2 B2:|2 f2- f2- f2||
|:e2- ec e2|g2- gf ga|g2 f2 e2|d2- d2 ef|
g2- ga gf|e2 f2 d2|c2 d2 B2|1 c2 AB cd:|2 A2- A2- A2||

